X: 40
M:2/4
L:1/8
K:C
|:(g/f/)|eccc|c/d/e/f/ g/a/g/e/|dGGG|G/A/B/c/ d(g/f/)|
eccc|c/d/e/f/ ge|a>g a/b/a/g/|ec c:|



